public/static/img/user/envelope.svg

<svg width="34" height="34" viewBox="0 0 34 34" fill="none" xmlns="http://www.w3.org/2000/svg">
<circle cx="17" cy="17" r="17" fill="white" fill-opacity="0.1"/>
<path d="M9.78785 9.78796H25.2424C25.7166 9.78796 26.101 10.1724 26.101 10.6465V24.3839C26.101 24.8581 25.7166 25.2425 25.2424 25.2425H9.78785C9.31367 25.2425 8.92926 24.8581 8.92926 24.3839V10.6465C8.92926 10.1724 9.31367 9.78796 9.78785 9.78796ZM24.3838 13.4266L17.5768 19.5226L10.6464 13.4077V23.5253H24.3838V13.4266ZM11.0856 11.5051L17.5683 17.225L23.9554 11.5051H11.0856Z" fill="white"/>
</svg>

<svg width="34" height="34" fill="none" xmlns="http://www.w3.org/2000/svg"><circle cx="17" cy="17" r="17" fill="#fff" fill-opacity=".1"/><path d="M9.788 9.788h15.454c.475 0 .859.384.859.858v13.738a.859.859 0 0 1-.859.858H9.788a.859.859 0 0 1-.859-.858V10.646c0-.474.385-.858.859-.858Zm14.596 3.639-6.807 6.096-6.93-6.115v10.117h13.737V13.427Zm-13.298-1.922 6.482 5.72 6.387-5.72h-12.87Z" fill="#fff"/></svg>
